X:24
T:Primrose Lass, The
R:Reel
S:Slow Session Version
M:4/4
L:1/8
K:G
B2 BA G2 GE|DEGA BA A2|B2 BA G2 GE|DEGA BG G2:|Bdgd edgd|Bdgd BA A2|
Bdgd edge|BdAc BG G2|Bdgd edgd|Bdgd BA A2|Bdef gage|dBAc BG G2||
